src/assets/r6db_logo_new.svg

<?xml version="1.0" encoding="UTF-8" standalone="no"?>
<svg width="187px" height="123px" viewBox="0 0 187 123" version="1.1" xmlns="http://www.w3.org/2000/svg" xmlns:xlink="http://www.w3.org/1999/xlink">
    <!-- Generator: Sketch 42 (36781) - http://www.bohemiancoding.com/sketch -->
    <title>r6db_logo_new</title>
    <desc>Created with Sketch.</desc>
    <defs></defs>
    <g id="Page-1" stroke="none" stroke-width="1" fill="none" fill-rule="evenodd">
        <g id="Desktop-HD" transform="translate(-38.000000, -18.000000)" fill="#FFFFFF">
            <g id="side_menu">
                <g id="r6db_logo_new" transform="translate(38.000000, 18.000000)">
                    <path d="M14.6946062,69.108506 L14.6946062,99.3299339 L0,99.3299339 L0,22.7820949 L15.4095619,22.7820949 C22.5959037,22.7820949 32.9971117,23.089818 36.4455911,26.8770875 C38.0919404,28.6851796 39.6768343,30.5104909 40.687602,33.3152541 C41.7940106,36.3854097 42.2496908,40.5245842 42.2496908,44.5559042 C42.2496908,49.0587407 41.2774543,57.5479906 39.5652722,61.0560144 C37.8530901,64.5640382 33.0974872,67.4665933 33.0974872,67.4665933 C33.0974872,67.4665933 39.8381667,94.3035117 42.2496908,99.3299339 L26.9790812,99.3299339 L18.8125133,69.108506 L14.6946062,69.108506 Z M14.7341755,57.7374819 L18.065546,57.7374819 C21.3303053,57.7374819 24.300729,57.654002 26.1670108,55.6007706 C28.0332927,53.5475392 27.6265791,49.7989976 27.6265791,46.1338981 C27.6265791,42.5037042 27.9019984,38.1997089 26.1670108,36.521656 C24.4320233,34.8436031 21.3969331,34.5380119 18.065546,34.5380119 L14.7341755,34.5380119 L14.7341755,57.7374819 Z" id="R"></path>
                    <path d="M144.642172,22.7820949 L163.343633,22.7820949 C171.445884,22.7820949 178.247978,24.3082619 181.90832,27.3606415 C185.568662,30.4130212 186.316309,36.6836638 186.316309,43.3402658 C186.316309,47.8584775 185.633738,51.6081195 183.726767,54.1377329 C181.819795,56.6673464 178.947872,57.9675277 178.947872,57.9675277 C178.947872,57.9675277 183.200119,60.018112 184.802333,62.949776 C186.404547,65.8814401 186.891863,69.4524623 186.891863,76.6128035 C186.891863,83.7731448 186.041565,90.5840003 182.277015,94.4468988 C178.512464,98.3097974 172.478899,99.3299339 166.01794,99.3299339 L144.642172,99.3299339 L144.642172,22.7820949 Z M158.595753,64.4773333 L158.595753,87.9517903 L164.650204,87.9517903 C167.984892,87.9517903 169.521262,87.3070887 171.110449,85.6170706 C172.699637,83.9270525 172.325407,79.6980686 172.325407,76.2145618 C172.325407,74.2208961 172.707157,68.7813137 171.110449,66.6634355 C169.91725,65.0807721 167.54716,64.4773333 164.650204,64.4773333 L158.595753,64.4773333 Z M158.598182,52.736654 L163.71953,52.736654 C167.002114,52.736654 169.417062,52.8977306 170.743084,50.88372 C172.069106,48.8697095 171.945901,46.3304225 171.945901,43.2263076 C171.945901,40.3291337 172.224236,37.4565228 170.009253,35.5258293 C167.79427,33.5951357 166.591104,33.7175005 163.126154,33.7175005 L158.598182,33.7175005 L158.598182,52.736654 Z" id="Combined-Shape"></path>
                    <path d="M141.81644,60.3230226 C141.81644,64.4643913 141.875587,68.6365868 141.777777,72.6099334 C141.652407,77.702857 141.825836,83.2301721 140.729632,87.1860338 C140.078863,89.5344585 138.620156,90.8361992 137.371636,92.5122384 C132.37924,99.2141347 122.126381,99.3299583 112.700348,99.3299583 L97.613913,99.3299583 L97.613913,22.7821193 L114.340178,22.7821193 C123.037394,22.7821193 133.218385,22.716994 138.028577,29.3141731 C139.561313,31.416321 140.750728,34.1114023 141.26393,37.1986357 C141.686506,39.7406883 141.548376,42.548628 141.653185,45.5102901 C141.701545,46.8768164 141.734032,48.2760745 141.767213,49.697051 C141.848871,53.1939865 141.81644,56.7976952 141.81644,60.3230226 Z M128.006747,61.8089159 C128.006747,39.1045421 128.389454,34.6897686 118.283192,34.6897686 L112.270482,34.6897686 L112.270482,87.4868286 L117.117091,87.4868286 C128.000757,87.4868286 128.006747,84.5132896 128.006747,61.8089159 Z" id="Combined-Shape"></path>
                    <path d="M8.82323306,22.7820949 L5.78185116,22.7820949 L23.8168372,31.4257753 C23.8168372,31.4257753 27.6265791,27.6754991 27.6265791,45.5045648 L27.6265791,99.3299339 L36.9635446,99.3299339 C37.1493104,98.3948509 37.9128278,94.1630495 36.9254915,92.2775907 C35.9903928,90.4918869 34.7063785,89.0961503 34.2065208,86.2096359 C33.2250348,80.5418772 33.1539144,73.9202419 33.1539144,66.9602914 C33.1539144,61.1569139 33.1539144,55.0265572 33.1539144,49.3636484 C33.1539144,44.7029846 32.8784262,41.9401111 33.7064091,37.0968606 C34.534392,32.25361 5.87923456,22.8084451 5.87923456,22.8084451 C5.87923456,22.8084451 6.96142899,22.798674 8.82323306,22.7820949 Z M63.6110224,22.7820949 L79.1961935,22.7820949 L79.1961935,99.3299339 L60.6184794,99.3299339 C65.572365,98.8839457 70.0675245,97.5086594 72.9596701,93.919044 C76.7303095,89.2390772 77.37301,81.8744367 77.37301,73.8516366 C77.37301,69.2793366 77.1945044,64.2863527 76.296386,59.8706521 C75.7331056,57.1012206 74.8674479,54.3486236 73.6453108,52.723183 C70.4745458,48.5060701 66.5205305,46.9021407 60.2932624,46.9021407 C49.5994862,46.9021407 46.8717475,51.0891237 46.8717475,51.0891237 C46.8717475,43.8986353 46.5437431,41.2970664 47.9720156,38.0742322 C49.4002881,34.8513979 51.4425562,34.3136328 54.343631,34.3136328 C57.2447058,34.3136328 60.9659232,35.0749839 62.0198785,40.4151964 L76.296386,37.0982329 C75.3044917,29.678319 69.7545529,24.2532027 63.6110224,22.7820949 Z M55.6504224,88.0603613 C58.4784758,88.0603613 60.3024831,87.3056682 61.8164914,85.0417337 C63.3304998,82.7777992 63.7315565,78.6475013 63.7315565,74.4600735 C63.7315565,70.8173518 63.7053162,63.3584158 62.2912895,61.264702 C60.8772628,59.1709881 57.7430843,58.6389765 54.8864648,58.6389765 C52.2012424,58.6389765 50.5445064,59.1880101 48.6448543,61.264702 C46.7452023,63.3413938 47.335582,70.0924569 47.335582,72.8500313 C47.335582,76.9012825 47.3726595,82.2501152 49.1580467,85.0417337 C50.9434339,87.8333522 52.9080676,88.0603613 55.6504224,88.0603613 Z" id="Combined-Shape"></path>
                    <rect id="Rectangle-4" x="86.5002069" y="0" width="3.43124636" height="123"></rect>
                </g>
            </g>
        </g>
    </g>
</svg>

<svg width="187" height="123" viewBox="0 0 187 123" xmlns="http://www.w3.org/2000/svg"><title>r6db_logo_new</title><g fill="#FFF" fill-rule="evenodd"><path d="M14.695 69.109v30.22H0V22.783h15.41c7.186 0 17.587.308 21.036 4.095 1.646 1.808 3.23 3.633 4.242 6.438 1.106 3.07 1.562 7.21 1.562 11.24 0 4.504-.973 12.993-2.685 16.501-1.712 3.508-6.468 6.41-6.468 6.41s6.741 26.838 9.153 31.864H26.98l-8.167-30.221h-4.118zm.04-11.372h3.33c3.265 0 6.236-.083 8.102-2.136 1.866-2.053 1.46-5.802 1.46-9.467 0-3.63.275-7.934-1.46-9.612-1.735-1.678-4.77-1.984-8.101-1.984h-3.332v23.2zM144.642 22.782h18.702c8.102 0 14.904 1.526 18.564 4.579 3.66 3.052 4.408 9.323 4.408 15.98 0 4.517-.682 8.267-2.59 10.797-1.906 2.53-4.778 3.83-4.778 3.83s4.252 2.05 5.854 4.982c1.603 2.931 2.09 6.502 2.09 13.663 0 7.16-.85 13.971-4.615 17.834-3.765 3.863-9.798 4.883-16.26 4.883h-21.375V22.782zm13.954 41.695v23.475h6.054c3.335 0 4.871-.645 6.46-2.335 1.59-1.69 1.215-5.919 1.215-9.402 0-1.994.382-7.434-1.215-9.552-1.193-1.582-3.563-2.186-6.46-2.186h-6.054zm.002-11.74h5.122c3.282 0 5.697.16 7.023-1.853 1.326-2.014 1.203-4.554 1.203-7.658 0-2.897.278-5.77-1.937-7.7-2.215-1.93-3.418-1.808-6.883-1.808h-4.528v19.019zM141.816 60.323c0 4.141.06 8.314-.038 12.287-.126 5.093.048 10.62-1.048 14.576-.651 2.348-2.11 3.65-3.358 5.326-4.993 6.702-15.246 6.818-24.672 6.818H97.614V22.782h16.726c8.697 0 18.878-.065 23.689 6.532 1.532 2.102 2.722 4.797 3.235 7.885.423 2.542.284 5.35.39 8.311.048 1.367.08 2.766.113 4.187.082 3.497.05 7.1.05 10.626zm-13.81 1.486c0-22.704.383-27.12-9.723-27.12h-6.013v52.798h4.847c10.884 0 10.89-2.974 10.89-25.678z"/><path d="M8.823 22.782H5.782l18.035 8.644s3.81-3.75 3.81 14.079V99.33h9.337c.185-.935.949-5.167-.039-7.052-.935-1.786-2.219-3.182-2.718-6.068-.982-5.668-1.053-12.29-1.053-19.25V49.364c0-4.661-.276-7.424.552-12.267.828-4.843-27.827-14.289-27.827-14.289l2.944-.026zm54.788 0h15.585V99.33H60.618c4.954-.446 9.45-1.821 12.342-5.411 3.77-4.68 4.413-12.045 4.413-20.067 0-4.573-.178-9.566-1.077-13.981-.563-2.77-1.429-5.522-2.65-7.148-3.171-4.217-7.125-5.82-13.353-5.82-10.694 0-13.421 4.186-13.421 4.186 0-7.19-.328-9.792 1.1-13.015 1.428-3.223 3.47-3.76 6.372-3.76 2.9 0 6.622.761 7.676 6.101l14.276-3.317c-.992-7.42-6.541-12.845-12.685-14.316zm-7.96 65.278c2.827 0 4.651-.754 6.165-3.018 1.514-2.264 1.916-6.394 1.916-10.582 0-3.643-.027-11.102-1.44-13.195-1.415-2.094-4.549-2.626-7.406-2.626-2.685 0-4.341.549-6.241 2.626-1.9 2.076-1.31 8.827-1.31 11.585 0 4.051.038 9.4 1.823 12.192 1.785 2.791 3.75 3.018 6.492 3.018zM86.5 0h3.431v123H86.5z"/></g></svg>
